X: 21585
T: Killala
R: polka
M: 2/4
K: Dmajor
|:A|D2 F>G|A2 AB/c/|d2 A>F|G2 F>E|
D2 f(3e/d/c/|d2 A>G|F2 G>E|D2 D:|
|:d/e/|ff f<d|gg g<e|ff/e/ f<a|g>f ed/e/|
ff de/f/|g>f e>d|c<A B>E|A2 GF/G/|
F2 E>D|d2 A>G|F2 G>E|D2 D2|
DD f(3e/d/c/|d2 A>G|F2 G>E|D2 D:|

